rospo-icon-theme-classic-common/16x16/apps/protege.svg

<svg height="16" width="16" xmlns="http://www.w3.org/2000/svg"><path d="m5.1715727 10.828427c-1.562097-1.5620968-1.562097-4.0947567.0000003-5.656854 1.5620972-1.5620972 6.922928-4.39026752 8.485025-2.8281705 1.562097 1.5620972-1.266073 6.9229275-2.828171 8.4850245-1.562097 1.562098-4.0947571 1.562097-5.6568543 0z" fill="#25509a"/><path d="m9.4139569 9.4144705c-.7977995.7977995-2.0306277.7977995-2.8284271 0-.7977993-.7977993-.7977996-2.0306276 0-2.8284272.3988998-.3988998 2.0931982-1.5394042 3.5852522-2.1489417.746027-.3047686 1.468869-.4989694 1.907255-.5399975.01644-.00154.0098.00109.02486 0-.0011.01509.0015.00842 0 .024859-.04103.4383861-.235229 1.1612279-.539997 1.907255-.609538 1.4920542-1.7500422 3.1863526-2.1489421 3.5852524z" fill="#fff"/><path d="m5.1715727 5.168059c-1.562097 1.5620967-1.562097 4.0947566.0000003 5.656854 1.5620972 1.562097 6.922928 4.390267 8.485025 2.82817s-1.266073-6.9229271-2.828171-8.485024c-1.562097-1.562098-4.0947571-1.562097-5.6568543 0z" fill="#9e51c3"/><path d="m9.4139569 6.5820154c-.7977995-.7977994-2.0306277-.7977994-2.8284271 0-.7977993.7977993-.7977996 2.0306276 0 2.8284272.3988998.3988998 2.0931982 1.5394044 3.5852522 2.1489414.746027.304769 1.468869.49897 1.907255.539998.01644.0015.0098-.0011.02486 0-.0011-.01509.0015-.0084 0-.02486-.04103-.438385-.235229-1.161227-.539997-1.907254-.609538-1.4920544-1.7500422-3.1863528-2.1489421-3.5852526z" fill="#fff"/><path d="m11.999637 8.0000002c0 2.2091388-1.790861 3.9999998-4.0000001 3.9999998s-7.9996369-1.790861-7.9996369-3.9999998c0-2.209139 5.7904978-4.0000002 7.9996369-4.0000002s4.0000001 1.7908612 4.0000001 4.0000002z" fill="#d97f33"/><path d="m8 6c1.1282588 0 2 .8717412 2 2 0 1.1282585-.8717411 2-2 2-.5641295 0-2.5686378-.3915915-4.0546875-1.015625-.7430248-.3120168-1.3914718-.6858225-1.7304687-.9667969-.0127124-.0105365-.0061374-.0076768-.0175782-.0175781.011441-.0099.00487-.00704.017578-.017578.338997-.2809745.9874441-.6547802 1.7304689-.966797 1.4860496-.6240336 3.4905581-1.015625 4.0546875-1.015625z" fill="#fff"/></svg>

<svg xmlns="http://www.w3.org/2000/svg" width="16" height="16" version="1">
 <path style="fill:#25509a" d="m 5.1715727,10.828427 c -1.562097,-1.5620968 -1.562097,-4.0947567 3e-7,-5.656854 1.5620972,-1.5620972 6.922928,-4.39026752 8.485025,-2.8281705 1.562097,1.5620972 -1.266073,6.9229275 -2.828171,8.4850245 -1.562097,1.562098 -4.0947571,1.562097 -5.6568543,0 z"/>
 <path style="fill:#ffffff" d="m 9.4139569,9.4144705 c -0.7977995,0.7977995 -2.0306277,0.7977995 -2.8284271,0 -0.7977993,-0.7977993 -0.7977996,-2.0306276 0,-2.8284272 C 6.9844296,6.1871435 8.678728,5.0466391 10.170782,4.4371016 10.916809,4.132333 11.639651,3.9381322 12.078037,3.8971041 c 0.01644,-0.00154 0.0098,0.00109 0.02486,0 -0.0011,0.01509 0.0015,0.00842 0,0.024859 C 12.061867,4.3603492 11.867668,5.083191 11.5629,5.8292181 10.953362,7.3212723 9.8128578,9.0155707 9.4139579,9.4144705 Z"/>
 <path style="fill:#9e51c3" d="m 5.1715727,5.168059 c -1.562097,1.5620967 -1.562097,4.0947566 3e-7,5.656854 1.5620972,1.562097 6.922928,4.390267 8.485025,2.82817 1.562097,-1.562097 -1.266073,-6.9229271 -2.828171,-8.485024 -1.562097,-1.562098 -4.0947571,-1.562097 -5.6568543,0 z"/>
 <path style="fill:#ffffff" d="m 9.4139569,6.5820154 c -0.7977995,-0.7977994 -2.0306277,-0.7977994 -2.8284271,0 -0.7977993,0.7977993 -0.7977996,2.0306276 0,2.8284272 0.3988998,0.3988998 2.0931982,1.5394044 3.5852522,2.1489414 0.746027,0.304769 1.468869,0.49897 1.907255,0.539998 0.01644,0.0015 0.0098,-0.0011 0.02486,0 -0.0011,-0.01509 0.0015,-0.0084 0,-0.02486 C 12.061867,11.636137 11.867668,10.913295 11.5629,10.167268 10.953362,8.6752136 9.8128578,6.9809152 9.4139579,6.5820154 Z"/>
 <path style="fill:#d97f33" d="M 11.999637,8.0000002 C 11.999637,10.209139 10.208776,12 7.9996369,12 5.7904978,12 0,10.209139 0,8.0000002 0,5.7908612 5.7904978,4 7.9996369,4 10.208776,4 11.999637,5.7908612 11.999637,8.0000002 Z"/>
 <path style="fill:#ffffff" d="m 8,6 c 1.1282588,0 2,0.8717412 2,2 0,1.1282585 -0.8717411,2 -2,2 C 7.4358705,10 5.4313622,9.6084085 3.9453125,8.984375 3.2022877,8.6723582 2.5538407,8.2985525 2.2148438,8.0175781 2.2021314,8.0070416 2.2087064,8.0099013 2.1972656,8 2.2087066,7.9901 2.2021356,7.99296 2.2148436,7.982422 2.5538406,7.7014475 3.2022877,7.3276418 3.9453125,7.015625 5.4313621,6.3915914 7.4358706,6 8,6 Z"/>
</svg>
